!!!OTL: SCHAETZCHEN SAG WIE WIRDS DIR WERDEN
!!!ARE: Europa, Mitteleuropa, Deutschland, Unter - Westerwald
!!!SCT: E0661
!!!YEM: Copyright 1995, estate of Helmut Schaffrath.
**kern
*ICvox
*Ivox
*M4/4
*k[b-e-]
*B-:
=1
{4f
4f
4.b-
8f
=2
8g
8f
8g
8a
8b-
8f
4f}
=3
{4f
4g
4.f
8e-
=4
8d
8f
8b-
8dd
4b-
4r}
=5
{4cc
4ee-
4.dd
8dd
=6
4cc
4cc
4dd
4b-}
=7
{8g
8a
8b-
8g
4.f
8f
=8
8f
8a
8cc
8ee-
4dd
4r}
==
!!!AGN: Liebes - Lied
!!!ONB: ESAC (Essen Associative Code) Database: ERK2
!!!AMT: simple quadruple
!!!AIN: vox
!!!EED: Helmut Schaffrath
!!!EEV: 1.0
*-
